app/img/icons/ic--pool.svg

<svg xmlns="http://www.w3.org/2000/svg" preserveAspectRatio="xMidYMid" width="29.809" height="25.969" viewBox="0 0 29.809 25.969"><defs><style>.cls-1{fill:#fff;fill-rule:evenodd}</style></defs><path d="M18.714 10.761c0 2.329 1.604 4.257 3.568 4.257 1.963 0 3.575-1.928 3.575-4.257 0-2.349-1.612-4.267-3.575-4.267-1.957 0-3.568 1.918-3.568 4.267zm3.568-1.446c.662 0 1.192.643 1.192 1.446 0 .783-.53 1.425-1.192 1.425-.655 0-1.193-.642-1.193-1.425 0-.803.538-1.446 1.193-1.446zm7.301 9.577c-.269-.331-.722-.331-.999 0a2.439 2.439 0 0 1-.772.613l-.034.02a1.96 1.96 0 0 1-.864.201 1.9 1.9 0 0 1-.923-.221 2.678 2.678 0 0 1-.781-.613l-.033-.049a3.617 3.617 0 0 0-1.192-.935l-.042-.029a3.198 3.198 0 0 0-2.854.029c-.47.221-.889.563-1.241.984a2.454 2.454 0 0 1-.773.613l-.016.02c-.269.131-.58.201-.89.201-.319 0-.63-.07-.907-.221a2.674 2.674 0 0 1-.78-.613 3.636 3.636 0 0 0-1.226-.984l-.042-.029a3.222 3.222 0 0 0-1.409-.321c-.512 0-.991.131-1.444.35a3.528 3.528 0 0 0-1.192.935l-.05.049a2.656 2.656 0 0 1-.772.613 1.847 1.847 0 0 1-.915.221c-.311 0-.613-.07-.864-.201l-.034-.02a2.454 2.454 0 0 1-.773-.613 3.677 3.677 0 0 0-1.241-.984 3.302 3.302 0 0 0-1.452-.35c-.487 0-.965.11-1.402.321l-.042.029a3.742 3.742 0 0 0-1.234.984h-.008c-.21.261-.462.463-.764.613a1.86 1.86 0 0 1-.906.221c-.386 0-.714.371-.714.834 0 .481.328.862.714.862.503 0 1.007-.12 1.443-.361h.009a3.664 3.664 0 0 0 1.225-.984c.218-.25.496-.461.781-.602l.016-.02a2.016 2.016 0 0 1 1.796.02c.294.141.555.352.772.602.353.432.773.763 1.243.984l.033.04c.437.201.923.321 1.402.321.512 0 1.007-.12 1.452-.361h.008a3.607 3.607 0 0 0 1.234-.984l.034-.029c.201-.242.469-.453.73-.573.294-.141.587-.221.915-.221.31 0 .62.07.881.201l.025.02c.302.141.554.352.78.602.345.432.764.763 1.226.984a3.1 3.1 0 0 0 1.452.361c.504 0 .974-.12 1.402-.321l.058-.04a3.508 3.508 0 0 0 1.226-.984c.218-.25.478-.461.772-.602.276-.141.587-.221.906-.221.319 0 .613.07.89.201l.033.02c.261.12.512.331.731.573l.041.029c.336.432.755.763 1.226.984.453.241.931.361 1.46.361.478 0 .957-.12 1.394-.321l.041-.04c.47-.221.89-.552 1.234-.984.285-.321.285-.844 0-1.185zm-18.414-.862l5.498-3.815.981 2.027c.336.683 1.05.914 1.612.522.57-.392.772-1.245.428-1.907L15.6 6.364l5.44-3.735c.553-.391.746-1.245.419-1.927C21.131.03 20.418-.202 19.848.2l-6.446 4.437c-.562.392-.756 1.245-.42 1.928l.034.08 2.475 5.13-5.497 3.805c-.57.381-.764 1.245-.436 1.927.318.663 1.04.884 1.611.523zm12.472 4.095c-.528 0-1.007.12-1.469.342-.461.231-.873.581-1.225.983a2.3 2.3 0 0 1-.781.623l-.025.02c-.26.12-.57.2-.881.2-.328 0-.621-.08-.915-.22a2.519 2.519 0 0 1-.764-.623l-.042-.04a3.76 3.76 0 0 0-1.191-.943l-.051-.021a3.314 3.314 0 0 0-1.41-.321c-.495 0-.99.12-1.443.342a4.139 4.139 0 0 0-1.234.983 2.433 2.433 0 0 1-.772.623c-.269.14-.579.22-.907.22a2.18 2.18 0 0 1-.881-.2l-.033-.02a2.527 2.527 0 0 1-.773-.623 4.206 4.206 0 0 0-1.225-.983h-.008a3.19 3.19 0 0 0-1.444-.342c-.386 0-.713.381-.713.843 0 .472.327.853.713.853.319 0 .629.081.898.211.311.141.562.362.781.623a4.06 4.06 0 0 0 1.234.984l.041.019c.454.202.915.322 1.41.322a3.35 3.35 0 0 0 1.461-.341 4.136 4.136 0 0 0 1.225-.984c.218-.261.479-.482.772-.623a2.14 2.14 0 0 1 .898-.211c.327 0 .621.071.898.211h.017c.277.141.529.341.747.583l.025.04a3.91 3.91 0 0 0 1.243.984c.453.221.931.341 1.443.341.495 0 .973-.12 1.41-.322l.042-.019a4.025 4.025 0 0 0 1.225-.984c.227-.272.496-.482.781-.623.277-.13.587-.211.923-.211.386 0 .696-.381.696-.853 0-.462-.31-.843-.696-.843z" class="cls-1"/></svg>

<svg xmlns="http://www.w3.org/2000/svg" xmlns:xlink="http://www.w3.org/1999/xlink" preserveAspectRatio="xMidYMid" width="29.809" height="25.969" viewBox="0 0 29.809 25.969">
  <defs>
    <style>
      .cls-1 {
        fill: #fff;
        fill-rule: evenodd;
      }
    </style>
  </defs>
  <path d="M18.714,10.761 C18.714,13.090 20.318,15.018 22.282,15.018 C24.245,15.018 25.857,13.090 25.857,10.761 C25.857,8.412 24.245,6.494 22.282,6.494 C20.325,6.494 18.714,8.412 18.714,10.761 L18.714,10.761 ZM22.282,9.315 L22.282,9.315 C22.944,9.315 23.474,9.958 23.474,10.761 C23.474,11.544 22.944,12.186 22.282,12.186 C21.627,12.186 21.089,11.544 21.089,10.761 C21.089,9.958 21.627,9.315 22.282,9.315 L22.282,9.315 ZM29.583,18.892 L29.583,18.892 C29.314,18.561 28.861,18.561 28.584,18.892 C28.366,19.153 28.106,19.355 27.812,19.505 L27.778,19.525 C27.519,19.656 27.208,19.726 26.914,19.726 C26.570,19.726 26.276,19.656 25.991,19.505 C25.705,19.355 25.437,19.153 25.210,18.892 L25.177,18.843 C24.849,18.451 24.430,18.120 23.985,17.908 L23.943,17.879 C23.507,17.668 23.037,17.558 22.533,17.558 C22.030,17.558 21.535,17.689 21.089,17.908 C20.619,18.129 20.200,18.471 19.848,18.892 C19.629,19.153 19.369,19.355 19.075,19.505 L19.059,19.525 C18.790,19.656 18.479,19.726 18.169,19.726 C17.850,19.726 17.539,19.656 17.262,19.505 C16.977,19.355 16.708,19.153 16.482,18.892 C16.137,18.471 15.718,18.129 15.256,17.908 L15.214,17.879 C14.778,17.668 14.300,17.558 13.805,17.558 C13.293,17.558 12.814,17.689 12.361,17.908 C11.908,18.120 11.496,18.451 11.169,18.843 L11.119,18.892 C10.892,19.153 10.632,19.355 10.347,19.505 C10.070,19.656 9.776,19.726 9.432,19.726 C9.121,19.726 8.819,19.656 8.568,19.525 L8.534,19.505 C8.240,19.355 7.980,19.153 7.761,18.892 C7.409,18.471 6.990,18.129 6.520,17.908 C6.074,17.689 5.579,17.558 5.068,17.558 C4.581,17.558 4.103,17.668 3.666,17.879 L3.624,17.908 C3.163,18.129 2.742,18.471 2.390,18.892 L2.382,18.892 C2.172,19.153 1.920,19.355 1.618,19.505 C1.349,19.656 1.030,19.726 0.712,19.726 C0.326,19.726 -0.002,20.097 -0.002,20.560 C-0.002,21.041 0.326,21.422 0.712,21.422 C1.215,21.422 1.719,21.302 2.155,21.061 L2.164,21.061 C2.617,20.840 3.036,20.509 3.389,20.077 C3.607,19.827 3.885,19.616 4.170,19.475 L4.186,19.455 C4.455,19.324 4.757,19.254 5.068,19.254 C5.403,19.254 5.714,19.334 5.982,19.475 C6.276,19.616 6.537,19.827 6.754,20.077 C7.107,20.509 7.527,20.840 7.997,21.061 L8.030,21.101 C8.467,21.302 8.953,21.422 9.432,21.422 C9.944,21.422 10.439,21.302 10.884,21.061 L10.892,21.061 C11.354,20.840 11.773,20.509 12.126,20.077 L12.160,20.048 C12.361,19.806 12.629,19.595 12.890,19.475 C13.184,19.334 13.477,19.254 13.805,19.254 C14.115,19.254 14.425,19.324 14.686,19.455 L14.711,19.475 C15.013,19.616 15.265,19.827 15.491,20.077 C15.836,20.509 16.255,20.840 16.717,21.061 C17.178,21.302 17.665,21.422 18.169,21.422 C18.673,21.422 19.143,21.302 19.571,21.101 L19.629,21.061 C20.091,20.840 20.510,20.509 20.855,20.077 C21.073,19.827 21.333,19.616 21.627,19.475 C21.903,19.334 22.214,19.254 22.533,19.254 C22.852,19.254 23.146,19.324 23.423,19.455 L23.456,19.475 C23.717,19.595 23.968,19.806 24.187,20.048 L24.228,20.077 C24.564,20.509 24.983,20.840 25.454,21.061 C25.907,21.302 26.385,21.422 26.914,21.422 C27.392,21.422 27.871,21.302 28.308,21.101 L28.349,21.061 C28.819,20.840 29.239,20.509 29.583,20.077 C29.868,19.756 29.868,19.233 29.583,18.892 L29.583,18.892 ZM11.169,18.030 L11.169,18.030 L16.667,14.215 L17.648,16.242 C17.984,16.925 18.698,17.156 19.260,16.764 C19.830,16.372 20.032,15.519 19.688,14.857 L15.600,6.364 L21.040,2.629 C21.593,2.238 21.786,1.384 21.459,0.702 C21.131,0.030 20.418,-0.202 19.848,0.200 L13.402,4.637 C12.840,5.029 12.646,5.882 12.982,6.565 L13.016,6.645 L15.491,11.775 L9.994,15.580 C9.424,15.961 9.230,16.825 9.558,17.507 C9.876,18.170 10.598,18.391 11.169,18.030 L11.169,18.030 ZM23.641,22.125 L23.641,22.125 C23.113,22.125 22.634,22.245 22.172,22.467 C21.711,22.698 21.299,23.048 20.947,23.450 C20.728,23.711 20.468,23.933 20.166,24.073 L20.141,24.093 C19.881,24.213 19.571,24.293 19.260,24.293 C18.932,24.293 18.639,24.213 18.345,24.073 C18.069,23.933 17.800,23.711 17.581,23.450 L17.539,23.410 C17.212,23.008 16.792,22.698 16.348,22.467 L16.297,22.446 C15.861,22.245 15.399,22.125 14.887,22.125 C14.392,22.125 13.897,22.245 13.444,22.467 C12.982,22.698 12.562,23.048 12.210,23.450 C11.992,23.711 11.723,23.933 11.438,24.073 C11.169,24.213 10.859,24.293 10.531,24.293 C10.213,24.293 9.927,24.213 9.650,24.093 L9.617,24.073 C9.339,23.933 9.063,23.711 8.844,23.450 C8.492,23.048 8.073,22.698 7.619,22.467 L7.611,22.467 C7.174,22.245 6.679,22.125 6.167,22.125 C5.781,22.125 5.454,22.506 5.454,22.968 C5.454,23.440 5.781,23.821 6.167,23.821 C6.486,23.821 6.796,23.902 7.065,24.032 C7.376,24.173 7.627,24.394 7.846,24.655 L7.846,24.655 C8.198,25.066 8.610,25.398 9.080,25.639 L9.121,25.658 C9.575,25.860 10.036,25.980 10.531,25.980 C11.035,25.980 11.539,25.860 11.992,25.639 C12.453,25.398 12.865,25.066 13.217,24.655 C13.435,24.394 13.696,24.173 13.989,24.032 C14.266,23.902 14.577,23.821 14.887,23.821 C15.214,23.821 15.508,23.892 15.785,24.032 L15.802,24.032 C16.079,24.173 16.331,24.373 16.549,24.615 L16.574,24.655 C16.919,25.066 17.338,25.398 17.817,25.639 C18.270,25.860 18.748,25.980 19.260,25.980 C19.755,25.980 20.233,25.860 20.670,25.658 L20.712,25.639 C21.174,25.398 21.593,25.066 21.937,24.655 L21.937,24.655 C22.164,24.383 22.433,24.173 22.718,24.032 C22.995,23.902 23.305,23.821 23.641,23.821 C24.027,23.821 24.337,23.440 24.337,22.968 C24.337,22.506 24.027,22.125 23.641,22.125 L23.641,22.125 Z" class="cls-1"/>
</svg>
